Kits/rokt/SampleApp/Resources/AppIcon/appiconfg.svg

<svg xmlns="http://www.w3.org/2000/svg" xmlns:xlink="http://www.w3.org/1999/xlink" width="456" zoomAndPan="magnify" viewBox="0 0 342 341.999987" height="456" preserveAspectRatio="xMidYMid meet" version="1.0"><defs><clipPath id="9210fc973b"><path d="M 232 189 L 242 189 L 242 202.808594 L 232 202.808594 Z M 232 189 " clip-rule="nonzero"/></clipPath><clipPath id="e4c154e903"><path d="M 44.816406 163 L 66 163 L 66 190 L 44.816406 190 Z M 44.816406 163 " clip-rule="nonzero"/></clipPath><clipPath id="253246e03d"><path d="M 86 137.542969 L 108 137.542969 L 108 164 L 86 164 Z M 86 137.542969 " clip-rule="nonzero"/></clipPath><clipPath id="797e0a60b0"><path d="M 65 137.542969 L 87 137.542969 L 87 164 L 65 164 Z M 65 137.542969 " clip-rule="nonzero"/></clipPath><clipPath id="064c24910c"><path d="M 44.816406 137.542969 L 66 137.542969 L 66 164 L 44.816406 164 Z M 44.816406 137.542969 " clip-rule="nonzero"/></clipPath></defs><path fill="#000000" d="M 228.148438 199.34375 C 227.515625 199.34375 226.949219 199.214844 226.453125 198.960938 C 225.953125 198.703125 225.539062 198.316406 225.21875 197.792969 L 225.09375 197.792969 L 224.933594 199.128906 L 223.683594 199.128906 L 223.683594 186.234375 L 225.257812 186.234375 L 225.257812 190.925781 L 225.363281 190.925781 C 225.578125 190.589844 225.828125 190.324219 226.113281 190.121094 C 226.398438 189.917969 226.722656 189.769531 227.078125 189.675781 C 227.433594 189.578125 227.816406 189.53125 228.21875 189.53125 C 228.945312 189.53125 229.582031 189.703125 230.132812 190.046875 C 230.679688 190.394531 231.105469 190.921875 231.40625 191.636719 C 231.710938 192.351562 231.863281 193.257812 231.863281 194.367188 C 231.863281 195.53125 231.714844 196.480469 231.417969 197.210938 C 231.117188 197.941406 230.695312 198.480469 230.148438 198.824219 C 229.601562 199.171875 228.933594 199.34375 228.148438 199.34375 Z M 227.773438 197.972656 C 228.308594 197.972656 228.757812 197.863281 229.121094 197.648438 C 229.484375 197.433594 229.761719 197.082031 229.953125 196.589844 C 230.144531 196.097656 230.238281 195.445312 230.238281 194.636719 L 230.238281 194.261719 C 230.238281 193.476562 230.148438 192.835938 229.96875 192.34375 C 229.792969 191.851562 229.519531 191.488281 229.148438 191.253906 C 228.777344 191.023438 228.300781 190.90625 227.71875 190.90625 C 227.386719 190.90625 227.070312 190.960938 226.773438 191.066406 C 226.476562 191.175781 226.210938 191.359375 225.980469 191.621094 C 225.746094 191.882812 225.570312 192.234375 225.445312 192.671875 C 225.320312 193.113281 225.257812 193.652344 225.257812 194.296875 L 225.257812 194.582031 C 225.257812 195.316406 225.34375 195.9375 225.515625 196.4375 C 225.6875 196.933594 225.960938 197.316406 226.335938 197.578125 C 226.710938 197.839844 227.191406 197.96875 227.777344 197.96875 Z M 227.773438 197.972656 " fill-opacity="1" fill-rule="nonzero"/><g clip-path="url(#9210fc973b)"><path fill="#000000" d="M 234.578125 202.378906 C 234.292969 202.378906 234.046875 202.355469 233.835938 202.316406 C 233.628906 202.273438 233.488281 202.246094 233.417969 202.234375 L 233.417969 201.09375 L 234.203125 201.09375 C 234.488281 201.09375 234.769531 201.03125 235.042969 200.914062 C 235.316406 200.796875 235.570312 200.59375 235.808594 200.308594 C 236.046875 200.023438 236.25 199.628906 236.417969 199.128906 L 232.773438 189.746094 L 234.417969 189.746094 L 236.292969 194.582031 C 236.375 194.808594 236.472656 195.085938 236.589844 195.410156 C 236.699219 195.738281 236.8125 196.074219 236.925781 196.417969 C 237.039062 196.765625 237.128906 197.066406 237.203125 197.328125 L 237.308594 197.328125 C 237.359375 197.136719 237.417969 196.925781 237.488281 196.6875 C 237.558594 196.449219 237.632812 196.203125 237.710938 195.945312 C 237.789062 195.691406 237.867188 195.449219 237.945312 195.214844 C 238.019531 194.984375 238.082031 194.78125 238.132812 194.601562 L 239.722656 189.75 L 241.3125 189.75 L 238.132812 198.863281 C 237.957031 199.375 237.757812 199.847656 237.542969 200.28125 C 237.328125 200.71875 237.09375 201.089844 236.828125 201.398438 C 236.566406 201.707031 236.253906 201.949219 235.882812 202.121094 C 235.515625 202.292969 235.078125 202.378906 234.578125 202.378906 Z M 234.578125 202.378906 " fill-opacity="1" fill-rule="nonzero"/></g><path fill="#000000" d="M 253.1875 189.796875 C 253.1875 188.621094 252.605469 188.003906 251.207031 188.003906 L 249.421875 188.003906 L 249.421875 191.605469 L 251.207031 191.605469 C 252.605469 191.605469 253.1875 191.007812 253.1875 189.796875 Z M 257.09375 189.835938 C 257.09375 191.277344 256.371094 192.28125 255.019531 193.054688 L 258.007812 199.019531 L 253.820312 199.019531 L 251.429688 194.070312 L 249.421875 194.070312 L 249.421875 199.019531 L 245.691406 199.019531 L 245.691406 185.539062 L 251.792969 185.539062 C 255.441406 185.539062 257.09375 187.292969 257.09375 189.835938 Z M 257.09375 189.835938 " fill-opacity="1" fill-rule="nonzero"/><path fill="#000000" d="M 284.820312 185.570312 L 283.363281 188.421875 L 288.121094 188.421875 L 288.121094 199.050781 L 291.871094 199.050781 L 291.871094 188.421875 L 295.96875 188.421875 L 295.96875 185.570312 Z M 284.820312 185.570312 " fill-opacity="1" fill-rule="nonzero"/><path fill="#000000" d="M 281.546875 185.554688 L 283.589844 185.554688 L 275.566406 192.121094 L 275.566406 189.835938 L 281.550781 185.554688 Z M 281.546875 185.554688 " fill-opacity="1" fill-rule="nonzero"/><path fill="#000000" d="M 281.53125 185.554688 L 283.660156 185.554688 L 280.566406 191.578125 L 277.1875 193.105469 Z M 281.53125 185.554688 " fill-opacity="1" fill-rule="nonzero"/><path fill="#000000" d="M 277.183594 193.105469 L 280.5625 191.578125 L 284.238281 199.011719 L 280.035156 199.011719 L 277.183594 193.109375 Z M 277.183594 193.105469 " fill-opacity="1" fill-rule="nonzero"/><path fill="#000000" d="M 275.636719 185.566406 L 271.90625 185.566406 L 271.90625 199.027344 L 275.636719 199.027344 Z M 275.636719 185.566406 " fill-opacity="1" fill-rule="nonzero"/><path fill="#000000" d="M 264.398438 185.285156 C 262.476562 185.285156 260.921875 185.921875 259.753906 187.171875 C 258.589844 188.425781 258.007812 190.121094 258.007812 192.292969 L 258.007812 192.332031 C 258.007812 194.507812 258.589844 196.222656 259.753906 197.476562 C 260.921875 198.726562 262.472656 199.34375 264.398438 199.34375 C 266.324219 199.34375 267.875 198.726562 269.023438 197.476562 C 270.1875 196.222656 270.769531 194.507812 270.769531 192.332031 L 270.769531 192.292969 C 270.769531 190.117188 270.1875 188.425781 269.023438 187.171875 C 267.875 185.921875 266.324219 185.285156 264.398438 185.285156 Z M 264.378906 188.027344 C 263.59375 188.027344 262.960938 188.425781 262.484375 189.207031 C 262.011719 189.988281 261.773438 191.050781 261.773438 192.410156 L 261.773438 192.433594 C 261.773438 193.792969 262.011719 194.863281 262.484375 195.644531 C 262.960938 196.429688 263.59375 196.8125 264.378906 196.8125 C 265.167969 196.8125 265.796875 196.429688 266.265625 195.644531 C 266.742188 194.863281 266.980469 193.792969 266.980469 192.433594 L 266.980469 192.410156 C 266.980469 191.050781 266.742188 189.988281 266.265625 189.207031 C 265.796875 188.425781 265.164062 188.027344 264.378906 188.027344 Z M 264.378906 188.027344 " fill-opacity="1" fill-rule="evenodd"/><path fill="#000000" d="M 86.796875 176.84375 L 86.796875 189.945312 L 107.789062 176.84375 L 107.789062 163.746094 Z M 86.796875 176.84375 " fill-opacity="1" fill-rule="nonzero"/><path fill="#000000" d="M 65.808594 176.84375 L 65.808594 189.945312 L 86.796875 176.84375 L 86.796875 163.746094 Z M 65.808594 176.84375 " fill-opacity="1" fill-rule="nonzero"/><g clip-path="url(#e4c154e903)"><path fill="#000000" d="M 44.816406 176.84375 L 44.816406 189.945312 L 65.808594 176.84375 L 65.808594 163.746094 Z M 44.816406 176.84375 " fill-opacity="1" fill-rule="nonzero"/></g><g clip-path="url(#253246e03d)"><path fill="#000000" d="M 107.789062 137.542969 L 86.796875 150.644531 L 86.796875 163.742188 L 107.789062 150.644531 Z M 107.789062 137.542969 " fill-opacity="1" fill-rule="nonzero"/></g><g clip-path="url(#797e0a60b0)"><path fill="#000000" d="M 86.796875 137.542969 L 65.808594 150.644531 L 65.808594 163.742188 L 86.796875 150.644531 Z M 86.796875 137.542969 " fill-opacity="1" fill-rule="nonzero"/></g><g clip-path="url(#064c24910c)"><path fill="#000000" d="M 65.808594 137.542969 L 44.816406 150.644531 L 44.816406 163.742188 L 65.808594 150.644531 Z M 65.808594 137.542969 " fill-opacity="1" fill-rule="nonzero"/></g><path fill="#000000" d="M 151.410156 164.53125 L 151.410156 176.9375 L 146.039062 176.9375 L 146.039062 164.941406 C 146.039062 162.511719 144.882812 161.316406 142.65625 161.316406 C 141 161.316406 139.550781 162.015625 138.308594 163.417969 L 138.308594 176.945312 L 132.949219 176.945312 L 132.949219 164.945312 C 132.949219 162.511719 131.835938 161.316406 129.605469 161.316406 C 127.914062 161.316406 126.46875 162.058594 125.230469 163.542969 L 125.230469 176.945312 L 119.820312 176.945312 L 119.820312 157.152344 L 124.855469 157.152344 L 124.855469 159.011719 C 126.628906 157.542969 128.867188 156.753906 131.171875 156.785156 C 133.898438 156.785156 135.878906 157.695312 137.035156 159.507812 C 139.222656 157.691406 141.617188 156.785156 144.21875 156.785156 C 148.886719 156.78125 151.40625 159.511719 151.40625 164.53125 Z M 151.410156 164.53125 " fill-opacity="1" fill-rule="nonzero"/><path fill="#000000" d="M 175.003906 161.644531 C 177.382812 165.84375 176.691406 171.105469 173.3125 174.550781 C 171.453125 176.351562 168.96875 177.371094 166.375 177.398438 C 164.503906 177.441406 162.679688 176.796875 161.253906 175.582031 L 161.253906 186.179688 L 155.859375 186.179688 L 155.859375 157.148438 L 161.105469 157.148438 L 161.105469 158.675781 C 162.585938 157.4375 164.457031 156.765625 166.382812 156.777344 C 169.921875 156.742188 173.207031 158.597656 175.003906 161.640625 Z M 171 167.003906 C 171 163.5 168.515625 161.3125 165.722656 161.3125 C 163.984375 161.289062 162.324219 162.027344 161.179688 163.335938 L 161.179688 170.882812 C 162.28125 172.128906 163.867188 172.835938 165.527344 172.820312 C 168.566406 172.820312 171 170.636719 171 167.007812 Z M 171 167.003906 " fill-opacity="1" fill-rule="nonzero"/><path fill="#000000" d="M 199.121094 176.941406 L 194.058594 176.941406 L 194.058594 175.253906 C 192.605469 176.675781 190.640625 177.449219 188.605469 177.398438 C 185.054688 177.425781 181.765625 175.527344 180.019531 172.4375 C 179.058594 170.816406 178.570312 168.957031 178.613281 167.074219 C 178.613281 163.078125 180.679688 159.734375 183.734375 158.042969 C 185.230469 157.195312 186.925781 156.753906 188.648438 156.765625 C 190.640625 156.714844 192.570312 157.457031 194.015625 158.828125 L 194.015625 157.136719 L 199.132812 157.136719 L 199.121094 176.945312 Z M 193.796875 170.921875 L 193.796875 163.253906 C 192.667969 162.003906 191.058594 161.296875 189.375 161.3125 C 186.484375 161.3125 184.011719 163.539062 184.011719 167.085938 C 184.011719 170.628906 186.445312 172.820312 189.335938 172.820312 C 191.03125 172.878906 192.664062 172.183594 193.796875 170.921875 Z M 193.796875 170.921875 " fill-opacity="1" fill-rule="nonzero"/><path fill="#000000" d="M 208.785156 157.152344 L 208.785156 158.964844 C 210.390625 157.355469 212.167969 156.777344 215.222656 156.777344 L 215.222656 161.894531 C 214.738281 161.765625 214.238281 161.710938 213.738281 161.730469 C 211.953125 161.777344 210.277344 162.609375 209.15625 163.996094 L 209.15625 176.945312 L 203.746094 176.945312 L 203.746094 157.152344 Z M 208.785156 157.152344 " fill-opacity="1" fill-rule="nonzero"/><path fill="#000000" d="M 231.523438 157.148438 L 231.523438 161.605469 L 227.0625 161.605469 L 227.0625 176.945312 L 221.691406 176.945312 L 221.691406 161.605469 L 217.527344 161.605469 L 217.527344 157.148438 L 221.691406 157.148438 L 221.691406 150.554688 L 227.0625 150.554688 L 227.0625 157.148438 Z M 231.523438 157.148438 " fill-opacity="1" fill-rule="nonzero"/><path fill="#000000" d="M 234.566406 149.066406 L 240.222656 149.066406 L 240.222656 154.511719 L 234.566406 154.511719 Z M 240.097656 176.941406 L 240.097656 157.148438 L 234.691406 157.148438 L 234.691406 176.941406 Z M 240.097656 176.941406 " fill-opacity="1" fill-rule="nonzero"/><path fill="#000000" d="M 262.835938 172.941406 C 260.9375 175.664062 257.71875 177.355469 254.042969 177.355469 C 250.160156 177.355469 246.738281 175.539062 244.835938 172.390625 C 241.917969 167.460938 243.554688 161.101562 248.492188 158.1875 C 248.550781 158.152344 248.613281 158.117188 248.675781 158.082031 C 250.3125 157.203125 252.140625 156.746094 254.003906 156.761719 C 257.921875 156.761719 260.855469 158.246094 262.796875 161.257812 L 258.664062 163.8125 C 257.511719 162.164062 255.984375 161.332031 254.042969 161.332031 C 250.90625 161.332031 248.800781 163.765625 248.800781 167.148438 C 248.800781 170.527344 250.824219 172.753906 254.003906 172.753906 C 255.925781 172.792969 257.75 171.882812 258.875 170.324219 Z M 262.835938 172.941406 " fill-opacity="1" fill-rule="nonzero"/><path fill="#000000" d="M 266.386719 147.292969 L 271.753906 147.292969 L 271.753906 176.945312 L 266.386719 176.945312 Z M 266.386719 147.292969 " fill-opacity="1" fill-rule="nonzero"/><path fill="#000000" d="M 290.332031 170.453125 C 289.117188 171.933594 287.285156 172.773438 285.363281 172.730469 C 282.570312 172.730469 280.578125 171.207031 280.164062 168.320312 L 295.398438 168.320312 C 295.429688 168.046875 295.445312 167.769531 295.4375 167.496094 C 295.4375 160.9375 291.351562 156.730469 285.363281 156.730469 C 283.441406 156.6875 281.542969 157.171875 279.875 158.132812 C 276.652344 159.992188 274.878906 163.246094 274.878906 167.082031 C 274.851562 169.765625 275.875 172.355469 277.726562 174.296875 C 279.503906 176.160156 282.269531 177.304688 285.363281 177.304688 C 289 177.304688 292.136719 175.742188 294.121094 172.9375 L 290.335938 170.449219 Z M 285.5 161.148438 C 288.015625 161.148438 289.582031 162.34375 290.246094 164.777344 L 280.382812 164.777344 C 281.121094 162.421875 282.894531 161.144531 285.5 161.144531 Z M 285.5 161.148438 " fill-opacity="1" fill-rule="nonzero"/></svg>

<svg xmlns="http://www.w3.org/2000/svg" width="456" height="456" version="1.0" viewBox="0 0 342 342"><defs><clipPath id="a"><path d="M232 189h10v13.809h-10Zm0 0"/></clipPath><clipPath id="b"><path d="M44.816 163H66v27H44.816Zm0 0"/></clipPath><clipPath id="c"><path d="M86 137.543h22V164H86Zm0 0"/></clipPath><clipPath id="d"><path d="M65 137.543h22V164H65Zm0 0"/></clipPath><clipPath id="e"><path d="M44.816 137.543H66V164H44.816Zm0 0"/></clipPath></defs><path d="M228.148 199.344q-.95-.002-1.695-.383a3.1 3.1 0 0 1-1.234-1.168h-.125l-.16 1.336h-1.25v-12.895h1.574v4.692h.105q.322-.502.75-.805c.285-.203.61-.351.965-.445a4.3 4.3 0 0 1 1.14-.145q1.09 0 1.915.516c.547.348.972.875 1.273 1.59.305.715.457 1.62.457 2.73q0 1.747-.445 2.844-.45 1.097-1.27 1.613-.82.521-2 .52m-.375-1.371q.804-.001 1.348-.325.544-.32.832-1.058.287-.74.285-1.953v-.375q0-1.179-.27-1.918-.262-.738-.82-1.09-.555-.346-1.43-.348a2.8 2.8 0 0 0-.945.16q-.445.163-.793.555-.35.394-.535 1.05c-.125.442-.187.981-.187 1.626v.285c0 .734.086 1.356.258 1.856q.258.746.82 1.14.562.392 1.441.39Zm0 0"/><g clip-path="url(#a)"><path d="M234.578 202.379c-.285 0-.531-.024-.742-.063q-.312-.064-.418-.082v-1.14h.785c.285 0 .567-.063.84-.18q.408-.176.766-.605.357-.43.609-1.18l-3.645-9.383h1.645l1.875 4.836.297.828.336 1.008c.113.348.203.648.277.91h.106q.074-.285.18-.64.105-.357.222-.743.117-.38.234-.73.112-.345.188-.613l1.59-4.852h1.59l-3.18 9.113q-.266.768-.59 1.418c-.215.438-.45.809-.715 1.117a2.7 2.7 0 0 1-.945.723c-.367.172-.805.258-1.305.258m0 0"/></g><path d="M253.188 189.797c0-1.176-.583-1.793-1.981-1.793h-1.785v3.601h1.785c1.398 0 1.98-.597 1.98-1.808m3.906.039c0 1.441-.723 2.445-2.074 3.219l2.988 5.965h-4.188l-2.39-4.95h-2.008v4.95h-3.73v-13.48h6.101c3.648 0 5.3 1.753 5.3 4.296m27.728-4.266-1.457 2.852h4.758v10.629h3.75v-10.63h4.098v-2.85Zm-3.273-.015h2.043l-8.024 6.566v-2.285l5.985-4.281Zm0 0"/><path d="M281.531 185.555h2.13l-3.095 6.023-3.378 1.527Zm0 0"/><path d="m277.184 193.105 3.378-1.527 3.676 7.434h-4.203l-2.851-5.903Zm-1.547-7.539h-3.73v13.461h3.73Zm0 0"/><path fill-rule="evenodd" d="M264.398 185.285c-1.921 0-3.476.637-4.644 1.887-1.164 1.254-1.746 2.95-1.746 5.121v.039q0 3.263 1.746 5.145c1.168 1.25 2.719 1.867 4.644 1.867s3.477-.617 4.625-1.867q1.747-1.882 1.747-5.145v-.039c0-2.176-.582-3.867-1.747-5.121-1.148-1.25-2.699-1.887-4.625-1.887m-.02 2.742c-.784 0-1.417.399-1.894 1.18-.472.781-.71 1.844-.71 3.203v.024q.001 2.04.71 3.21c.477.786 1.11 1.168 1.895 1.168.789 0 1.418-.382 1.887-1.167q.714-1.173.714-3.211v-.024c0-1.36-.238-2.422-.714-3.203-.47-.781-1.102-1.18-1.887-1.18m0 0"/><path d="M86.797 176.844v13.101l20.992-13.101v-13.098Zm-20.988 0v13.101l20.988-13.101v-13.098Zm0 0"/><g clip-path="url(#b)"><path d="M44.816 176.844v13.101l20.993-13.101v-13.098Zm0 0"/></g><g clip-path="url(#c)"><path d="m107.79 137.543-20.993 13.102v13.097l20.992-13.097Zm0 0"/></g><g clip-path="url(#d)"><path d="m86.797 137.543-20.988 13.102v13.097l20.988-13.097Zm0 0"/></g><g clip-path="url(#e)"><path d="m65.809 137.543-20.993 13.102v13.097l20.993-13.097Zm0 0"/></g><path d="M151.41 164.531v12.406h-5.37v-11.996c0-2.43-1.157-3.625-3.384-3.625q-2.484 0-4.347 2.102v13.527h-5.36v-12c0-2.433-1.113-3.629-3.344-3.629-1.69 0-3.136.743-4.375 2.227v13.402h-5.41v-19.793h5.035v1.86a9.7 9.7 0 0 1 6.317-2.227c2.726 0 4.707.91 5.863 2.723q3.281-2.724 7.184-2.723c4.668-.004 7.187 2.727 7.187 7.746Zm23.594-2.886a10.815 10.815 0 0 1-1.691 12.906 10.13 10.13 0 0 1-6.938 2.847 7.63 7.63 0 0 1-5.121-1.816v10.598h-5.395v-29.032h5.246v1.528a8.15 8.15 0 0 1 5.278-1.899 9.9 9.9 0 0 1 8.62 4.864ZM171 167.004c0-3.504-2.484-5.691-5.277-5.691a5.93 5.93 0 0 0-4.543 2.023v7.547a5.73 5.73 0 0 0 4.347 1.937c3.04 0 5.473-2.183 5.473-5.812Zm28.121 9.937h-5.062v-1.687a7.53 7.53 0 0 1-5.454 2.144 9.78 9.78 0 0 1-8.585-4.96 10.07 10.07 0 0 1-1.407-5.364c0-3.996 2.067-7.34 5.121-9.031a9.84 9.84 0 0 1 4.914-1.277 7.52 7.52 0 0 1 5.368 2.062v-1.691h5.117l-.012 19.808Zm-5.324-6.02v-7.667a5.9 5.9 0 0 0-4.422-1.941c-2.89 0-5.363 2.226-5.363 5.773 0 3.543 2.433 5.734 5.324 5.734a5.73 5.73 0 0 0 4.46-1.898m14.989-13.77v1.813c1.606-1.61 3.383-2.188 6.438-2.188v5.118a5 5 0 0 0-1.485-.165 6.1 6.1 0 0 0-4.582 2.266v12.95h-5.41v-19.794Zm22.738-.004v4.457h-4.46v15.34h-5.372v-15.34h-4.164v-4.457h4.164v-6.593h5.371v6.593Zm3.043-8.082h5.657v5.446h-5.657Zm5.532 27.875v-19.793h-5.407v19.793Zm22.738-4c-1.899 2.723-5.117 4.414-8.793 4.414-3.883 0-7.305-1.816-9.207-4.964-2.918-4.93-1.281-11.29 3.656-14.203q.089-.053.184-.106a11.06 11.06 0 0 1 5.328-1.32c3.918 0 6.851 1.484 8.793 4.496l-4.133 2.554c-1.152-1.648-2.68-2.48-4.621-2.48-3.137 0-5.242 2.434-5.242 5.816 0 3.38 2.023 5.606 5.203 5.606a5.87 5.87 0 0 0 4.871-2.43Zm3.551-25.648h5.367v29.652h-5.367Zm23.945 23.16a6.24 6.24 0 0 1-4.969 2.277c-2.793 0-4.785-1.523-5.199-4.41h15.234q.05-.411.04-.824c0-6.559-4.086-10.766-10.075-10.766a10.5 10.5 0 0 0-5.488 1.403c-3.223 1.86-4.996 5.113-4.996 8.949a10.3 10.3 0 0 0 2.848 7.215c1.777 1.863 4.543 3.008 7.636 3.008 3.637 0 6.774-1.563 8.758-4.368l-3.785-2.488Zm-4.832-9.305c2.516 0 4.082 1.196 4.746 3.63h-9.863c.738-2.356 2.512-3.633 5.117-3.633Zm0 0"/></svg>
